svgs/zappka.svg

<svg xmlns="http://www.w3.org/2000/svg" width="192" height="192" fill="none" stroke="#000" stroke-linecap="round" stroke-linejoin="round" stroke-width="10" viewBox="0 0 192 192"><path d="M21 80h12L21 98h12m27-18v18m12-9v18m29-18v18m29-33v24m2.671-11.307a8.998 8.998 0 0 0 11.022-6.364M138 88l6 10m27-18v18"/><path stroke-width="12" d="M41 115s12 12 40 12 40-12 40-12"/><circle cx="110" cy="89" r="9"/><circle cx="81" cy="89" r="9"/><circle cx="51" cy="89" r="9"/><circle cx="162" cy="89" r="9"/><circle cx="27" cy="65" r="3" stroke-width="6"/></svg>

<svg xmlns="http://www.w3.org/2000/svg" width="192" height="192" fill="none" stroke="#000" stroke-linecap="round"
  stroke-linejoin="round" stroke-width="10" viewBox="0 0 192 192">
  <path
    d="M 21 80 H 33 L 21 98 H 33 M 60 80 v 18 M 72 89 V 107 M 101 89 V 107 M 130 74 V 98 M 132.671 86.693 A 8.998 8.998 0 0 0 143.693 80.329 M 138 88 L 144 98 M 171 80 V 98" />
  <path stroke-width="12" d="M41 115s12 12 40 12 40-12 40-12" />
  <circle cx="110" cy="89" r="9" />
  <circle cx="81" cy="89" r="9" />
  <circle cx="51" cy="89" r="9" />
  <circle cx="162" cy="89" r="9" />
  <circle cx="27" cy="65" r="3" stroke-width="6" />
</svg>
